app/assets/images/lightning-icon.svg

<svg width="16" height="25" viewBox="0 0 16 25" fill="none" xmlns="http://www.w3.org/2000/svg">
<path d="M9.60836 8.16665C9.71646 8.16665 9.7913 8.16665 9.86614 8.16665C11.6373 8.16665 13.4168 8.16665 15.188 8.16665C15.7369 8.16665 16.0944 8.57911 15.978 9.07405C15.9447 9.19779 15.8782 9.31328 15.8034 9.42052C12.1612 14.4855 8.51903 19.5587 4.87686 24.6237C4.61908 24.9784 4.24488 25.0939 3.90395 24.9207C3.5547 24.7474 3.40502 24.3927 3.52975 23.9803C4.56919 20.4744 5.6003 16.9602 6.63974 13.4543C6.65637 13.3884 6.673 13.3224 6.69794 13.2234C6.58984 13.2234 6.50669 13.2234 6.41522 13.2234C4.58582 13.2234 2.75641 13.2234 0.927013 13.2234C0.78565 13.2234 0.644287 13.2234 0.519556 13.1821C0.095467 13.0666 -0.104104 12.6459 0.0538897 12.1922C0.436401 11.0374 0.827228 9.89072 1.21805 8.73584C2.13276 6.03012 3.04746 3.3244 3.95384 0.618686C4.11184 0.173232 4.35298 0 4.81033 0C7.55444 0 10.2985 0 13.0426 0C13.6081 0 13.9657 0.37946 13.8659 0.882658C13.8409 1.01464 13.7661 1.13838 13.6996 1.25387C12.3774 3.48939 11.0552 5.71665 9.73309 7.95217C9.69983 8.00992 9.66656 8.06766 9.60836 8.16665Z" fill="#61B7F2"/>
</svg>

<svg width="16" height="25" fill="none" xmlns="http://www.w3.org/2000/svg"><path d="M9.608 8.167h5.58c.549 0 .906.412.79.907-.033.124-.1.24-.175.347-3.642 5.065-7.284 10.138-10.926 15.203-.258.354-.632.47-.973.297-.35-.174-.499-.528-.374-.94 1.04-3.507 2.07-7.02 3.11-10.527l.058-.23H.927c-.141 0-.283 0-.407-.042-.425-.115-.624-.536-.466-.99.382-1.155.773-2.301 1.164-3.456.915-2.706 1.83-5.412 2.736-8.117C4.112.173 4.353 0 4.81 0h8.233c.565 0 .923.38.823.883-.025.132-.1.255-.166.37-1.323 2.236-2.645 4.464-3.967 6.7-.033.057-.066.115-.125.214z" fill="#61B7F2"/></svg>
